lib/brands/icons/unionpay.svg

<svg xmlns="http://www.w3.org/2000/svg" fill="none" aria-hidden="true" viewBox="0 0 48 48"><g id="unionpay-Icon"><g id="Group"><path id="Vector" fill="#E21836" d="M13.0501 12.7405H22.0355C23.2898 12.7405 24.0699 13.7628 23.7773 15.0213L19.594 32.9821C19.2987 34.2362 18.0429 35.2594 16.7878 35.2594H7.80319C6.55066 35.2594 5.76878 34.2362 6.06138 32.9821L10.2465 15.0213C10.5391 13.7628 11.7943 12.7405 13.0501 12.7405Z"/><path id="Vector_2" fill="#00447C" d="M21.2878 12.7405H31.6208C32.8749 12.7405 32.3094 13.7628 32.0144 15.0213L27.8317 32.9821C27.5382 34.2362 27.6298 35.2594 26.3731 35.2594H16.04C14.7833 35.2594 14.0056 34.2362 14.3008 32.9821L18.4833 15.0213C18.7803 13.7628 20.0329 12.7405 21.2878 12.7405Z"/><path id="Vector_3" fill="#007B84" d="M31.2112 12.7405H40.1967C41.4527 12.7405 42.2328 13.7628 41.9378 15.0213L37.7551 32.9821C37.4599 34.2362 36.2032 35.2594 34.9474 35.2594H25.9661C24.7094 35.2594 23.9299 34.2362 24.2243 32.9821L28.4076 15.0213C28.7002 13.7628 29.9545 12.7405 31.2112 12.7405Z"/><path id="Vector_4" fill="#FEFEFE" d="M15.3969 18.4964C14.4729 18.5059 14.2 18.4964 14.1129 18.4758C14.0794 18.6351 13.4558 21.5114 13.4541 21.5138C13.3198 22.0957 13.2221 22.5105 12.8903 22.7784C12.702 22.9341 12.4821 23.0092 12.2272 23.0092C11.8174 23.0092 11.5787 22.8057 11.5386 22.4198L11.5309 22.2873C11.5309 22.2873 11.6558 21.5079 11.6558 21.5035C11.6558 21.5035 12.3102 18.8823 12.4273 18.5359C12.4335 18.5161 12.4352 18.5059 12.4368 18.4964C11.163 18.5076 10.9372 18.4964 10.9216 18.4758C10.9131 18.5041 10.8816 18.6666 10.8816 18.6666L10.2133 21.6209L10.156 21.8714L10.0449 22.691C10.0449 22.9341 10.0927 23.1325 10.1877 23.3003C10.4921 23.8322 11.3605 23.912 11.8518 23.912C12.4847 23.912 13.0785 23.7775 13.4797 23.532C14.1762 23.1205 14.3584 22.4772 14.5209 21.9056L14.5962 21.6123C14.5962 21.6123 15.2704 18.89 15.3849 18.5359C15.3893 18.5161 15.391 18.5059 15.3969 18.4964ZM17.6906 20.6926C17.5281 20.6926 17.2311 20.732 16.9644 20.8627C16.8676 20.9125 16.776 20.9698 16.6794 21.027L16.7666 20.7123L16.7188 20.6593C16.1531 20.7738 16.0265 20.7892 15.504 20.8627L15.4602 20.8919C15.3995 21.3949 15.3456 21.7732 15.1207 22.762C15.0351 23.1265 14.9461 23.4944 14.857 23.858L14.8811 23.9042C15.4166 23.8759 15.5791 23.8759 16.0445 23.8836L16.0822 23.8426C16.1413 23.5397 16.149 23.4688 16.2799 22.8553C16.3415 22.5645 16.4698 21.9254 16.5331 21.6978C16.6494 21.644 16.7642 21.591 16.8737 21.591C17.1345 21.591 17.1028 21.8185 17.0927 21.9092C17.0815 22.0614 16.9865 22.5586 16.889 22.9854L16.824 23.2609C16.7786 23.4644 16.7289 23.6622 16.6836 23.8639L16.7033 23.9042C17.2311 23.8759 17.3921 23.8759 17.8428 23.8836L17.8958 23.8426C17.9773 23.3696 18.0012 23.243 18.1457 22.5542L18.2184 22.2377C18.3597 21.6183 18.4306 21.3043 18.3238 21.0485C18.2108 20.7618 17.9396 20.6926 17.6906 20.6926ZM20.2529 21.341C19.9723 21.3949 19.7934 21.4308 19.6156 21.4541C19.4392 21.4823 19.2673 21.5079 18.9962 21.5456L18.9747 21.5651L18.955 21.5806C18.9268 21.7826 18.907 21.9571 18.8696 22.1623C18.8378 22.3746 18.789 22.6157 18.7095 22.9622C18.648 23.2274 18.6162 23.3198 18.5812 23.4131C18.547 23.5064 18.5093 23.5971 18.4401 23.8579L18.4563 23.882L18.4699 23.9042C18.7233 23.8921 18.8891 23.8836 19.0595 23.882C19.2297 23.8759 19.406 23.882 19.6788 23.8836L19.7027 23.8641L19.7283 23.8426C19.7678 23.6074 19.7737 23.5441 19.7978 23.4293C19.8216 23.3062 19.8628 23.1359 19.9638 22.6807C20.0115 22.467 20.0647 22.2539 20.1142 22.0358C20.1657 21.8185 20.2196 21.6045 20.2708 21.3908L20.2632 21.3649L20.2529 21.341ZM20.2589 20.4667C20.0039 20.3162 19.5565 20.364 19.2553 20.5718C18.9551 20.7755 18.9209 21.0646 19.175 21.217C19.4255 21.3633 19.8747 21.3198 20.1732 21.1102C20.4728 20.9021 20.5103 20.6156 20.2589 20.4667ZM21.8006 23.9513C22.3164 23.9513 22.8451 23.8092 23.243 23.3873C23.5492 23.0452 23.6896 22.5363 23.7382 22.3267C23.8966 21.632 23.7733 21.3076 23.6184 21.11C23.3832 20.8089 22.9675 20.7123 22.5363 20.7123C22.277 20.7123 21.6593 20.7379 21.1769 21.1828C20.8304 21.5036 20.6703 21.939 20.5737 22.3565C20.4762 22.7818 20.3641 23.5474 21.0682 23.8324C21.2855 23.9257 21.5987 23.9513 21.8006 23.9513ZM21.7603 22.3882C21.8792 21.8621 22.0196 21.4206 22.3779 21.4206C22.6587 21.4206 22.6791 21.7491 22.5542 22.277C22.5319 22.3941 22.4294 22.8297 22.2908 23.0152C22.1939 23.1521 22.0794 23.2351 21.9528 23.2351C21.9151 23.2351 21.6911 23.2351 21.6876 22.9025C21.6858 22.7382 21.7193 22.5704 21.7603 22.3882ZM25.0275 23.8837L25.0678 23.8427C25.125 23.5398 25.1344 23.4686 25.261 22.8554C25.3243 22.5645 25.4553 21.9255 25.5168 21.6979C25.6333 21.6438 25.7461 21.5908 25.8591 21.5908C26.1182 21.5908 26.0867 21.8184 26.0764 21.909C26.067 22.0615 25.9719 22.5584 25.8727 22.9853L25.8112 23.2608C25.7641 23.4645 25.7128 23.662 25.6675 23.8639L25.6872 23.9042C26.2168 23.876 26.3716 23.876 26.825 23.8837L26.8797 23.8427C26.9592 23.3694 26.9807 23.2428 27.1296 22.5542L27.2006 22.2375C27.3425 21.6182 27.4143 21.3043 27.3092 21.0485C27.1929 20.7618 26.92 20.6926 26.6745 20.6926C26.5118 20.6926 26.2133 20.7318 25.9481 20.8628C25.8532 20.9125 25.7582 20.9697 25.6649 21.0271L25.7461 20.7123L25.7025 20.6591C25.137 20.7739 25.0078 20.7892 24.4859 20.8628L24.4458 20.8919C24.3825 21.395 24.3311 21.773 24.1062 22.7621C24.0205 23.1265 23.9316 23.4945 23.8427 23.858L23.8666 23.9042C24.4029 23.876 24.563 23.876 25.0275 23.8837ZM28.9184 23.9041C28.9517 23.7416 29.1495 22.7784 29.1512 22.7784C29.1512 22.7784 29.3196 22.0716 29.3299 22.046C29.3299 22.046 29.3829 21.9724 29.4359 21.9433H29.5139C30.2496 21.9433 31.0803 21.9433 31.7314 21.4643C32.1745 21.1358 32.4774 20.6507 32.6125 20.0611C32.6476 19.9166 32.6734 19.7446 32.6734 19.5727C32.6734 19.3469 32.6281 19.1235 32.4971 18.949C32.1651 18.4844 31.5039 18.4759 30.7406 18.4724C30.7382 18.4724 30.3643 18.4759 30.3643 18.4759C29.3873 18.4879 28.9955 18.4844 28.8345 18.4647C28.821 18.5359 28.7953 18.6625 28.7953 18.6625C28.7953 18.6625 28.4453 20.2845 28.4453 20.2871C28.4453 20.2871 27.6078 23.7357 27.5684 23.8982C28.4215 23.8879 28.7712 23.8879 28.9184 23.9041ZM29.5669 21.0228C29.5669 21.0228 29.939 19.4041 29.9373 19.4102L29.9493 19.3272L29.9546 19.2639L30.1033 19.2792C30.1033 19.2792 30.8707 19.3452 30.8887 19.3469C31.1916 19.4641 31.3164 19.7661 31.2292 20.1603C31.1497 20.5206 30.916 20.8235 30.6158 20.9698C30.3685 21.0938 30.0656 21.104 29.7535 21.104H29.5516L29.5669 21.0228ZM31.8837 22.4182C31.7854 22.8374 31.6724 23.6031 32.373 23.8759C32.5964 23.971 32.7966 23.9992 33 23.989C33.2149 23.9773 33.414 23.8696 33.5984 23.7145C33.5817 23.7783 33.5651 23.842 33.5484 23.9059L33.5802 23.9469C34.0841 23.9257 34.2405 23.9257 34.7865 23.9298L34.836 23.8921C34.9157 23.4235 34.9909 22.9684 35.198 22.0717C35.299 21.6422 35.3998 21.2169 35.5033 20.7892L35.4871 20.7421C34.9234 20.8466 34.7727 20.8689 34.2304 20.9458L34.1893 20.9793C34.1838 21.0229 34.1781 21.0647 34.1728 21.1065C34.0885 20.9703 33.9663 20.854 33.7777 20.7815C33.5366 20.6867 32.9702 20.8089 32.4834 21.2522C32.1413 21.5686 31.977 22.0023 31.8837 22.4182ZM33.0677 22.4438C33.1884 21.9272 33.327 21.49 33.6862 21.49C33.9133 21.49 34.0329 21.6996 34.0086 22.057C33.9893 22.1462 33.9685 22.2401 33.9438 22.3464C33.9078 22.4999 33.8689 22.6521 33.831 22.8045C33.7924 22.9088 33.7475 23.0071 33.6982 23.0726C33.6058 23.2036 33.3859 23.2848 33.2593 23.2848C33.2234 23.2848 33.0018 23.2848 32.9941 22.9581C32.9924 22.7953 33.0259 22.6278 33.0677 22.4438ZM39.2506 20.7379L39.207 20.6882C38.6491 20.8012 38.5482 20.8192 38.0357 20.8884L37.998 20.926C37.9963 20.9322 37.9947 20.9416 37.9921 20.9501L37.9904 20.9416C37.6088 21.8218 37.62 21.6319 37.3094 22.3249C37.3077 22.2933 37.3077 22.2736 37.3059 22.2401L37.2282 20.7379L37.1793 20.6882C36.595 20.8012 36.5812 20.8192 36.0416 20.8884L35.9995 20.926C35.9936 20.944 35.9936 20.9637 35.9901 20.9852L35.9936 20.9928C36.0611 21.3376 36.0449 21.2607 36.1125 21.8047C36.1441 22.0717 36.1861 22.3402 36.2177 22.6039C36.2709 23.0452 36.3007 23.2625 36.3657 23.9359C36.0013 24.5373 35.915 24.7649 35.5641 25.2927L35.5665 25.298L35.3195 25.6887C35.2912 25.7299 35.2656 25.7581 35.2297 25.7702C35.1903 25.7897 35.139 25.7932 35.0678 25.7932H34.931L34.7275 26.4699L35.4255 26.482C35.8353 26.4802 36.0928 26.2886 36.2315 26.031L36.6704 25.2789H36.6634L36.7096 25.2259C37.0048 24.5903 39.2506 20.7379 39.2506 20.7379ZM31.8837 29.626H31.5876L32.6835 26.0011H33.0471L33.1625 25.6277L33.1737 26.0429C33.1601 26.2996 33.362 26.5272 33.8925 26.4895H34.5059L34.7171 25.7915H34.4862C34.3535 25.7915 34.292 25.758 34.2996 25.6862L34.2885 25.2637H33.1524V25.2659C32.7852 25.2736 31.6883 25.3011 31.4663 25.3603C31.1975 25.4295 30.9143 25.6332 30.9143 25.6332L31.0256 25.2593H29.963L29.7415 26.0011L28.6309 29.6814H28.4154L28.2041 30.3744H30.3206L30.2496 30.6054H31.2926L31.3618 30.3744H31.6544L31.8837 29.626ZM31.0153 26.7377C30.8451 26.7847 30.5284 26.9275 30.5284 26.9275L30.8101 26.0011H31.6544L31.4507 26.6761C31.4507 26.6761 31.1899 26.6914 31.0153 26.7377ZM31.0315 28.0612C31.0315 28.0612 30.7663 28.0944 30.5917 28.1339C30.4198 28.186 30.0974 28.3502 30.0974 28.3502L30.3883 27.3862H31.237L31.0315 28.0612ZM30.5585 29.6345H29.7115L29.957 28.8209H30.8013L30.5585 29.6345ZM32.598 27.3862H33.8188L33.6434 27.9543H32.4064L32.2207 28.5754H33.303L32.4835 29.7294C32.4261 29.8141 32.3746 29.8441 32.3175 29.868C32.2601 29.8971 32.1848 29.9313 32.0976 29.9313H31.7973L31.591 30.6116H32.3764C32.7846 30.6116 33.0258 30.4258 33.2038 30.1821L33.7658 29.4129L33.8865 30.1939C33.9121 30.3402 34.0172 30.4258 34.0884 30.4591C34.167 30.4985 34.2483 30.5662 34.3631 30.5763C34.4861 30.5816 34.5751 30.5857 34.6342 30.5857H35.0201L35.2518 29.8244H35.0996C35.0122 29.8244 34.8618 29.8098 34.8361 29.7824C34.8105 29.7491 34.8105 29.6978 34.7967 29.6199L34.6743 28.8371H34.173L34.3928 28.5754H35.6274L35.8173 27.9543H34.6743L34.8523 27.3862H35.9919L36.2032 26.6855H32.8059L32.598 27.3862ZM22.2873 29.7927L22.5722 28.8448H23.7433L23.9573 28.1398H22.7851L22.964 27.5564H24.1095L24.3217 26.8737H21.4557L21.2479 27.5564H21.899L21.7253 28.1398H21.0724L20.856 28.8569H21.5069L21.1272 30.111C21.0759 30.277 21.1513 30.3403 21.199 30.4174C21.2479 30.4925 21.2974 30.5422 21.4086 30.5704C21.5234 30.5961 21.602 30.6114 21.7089 30.6114H23.0291L23.2643 29.8304L22.6791 29.9108C22.5661 29.9108 22.2531 29.8972 22.2873 29.7927ZM22.4216 25.255L22.1249 25.7914C22.0613 25.9086 22.0042 25.9813 21.9527 26.0148C21.9074 26.0431 21.8176 26.0549 21.6875 26.0549H21.5326L21.3257 26.741H21.8399C22.0872 26.741 22.2771 26.6504 22.3677 26.605C22.4652 26.5529 22.4908 26.5827 22.5662 26.51L22.7398 26.3595H24.3456L24.5587 25.6451H23.3833L23.5885 25.255H22.4216ZM24.7923 29.8065C24.7649 29.7671 24.7846 29.6977 24.8265 29.5531L25.2654 28.1004H26.8267C27.0543 28.0971 27.2185 28.0945 27.3254 28.0868C27.4402 28.0748 27.565 28.0338 27.701 27.9602C27.8414 27.8831 27.9132 27.8019 27.9739 27.7086C28.0416 27.6155 28.1502 27.4118 28.2435 27.0978L28.7952 25.2594L27.1749 25.2688C27.1749 25.2688 26.676 25.3424 26.4564 25.4236C26.2347 25.5143 25.918 25.7675 25.918 25.7675L26.0643 25.2635H25.0634L23.6622 29.9108C23.6125 30.0912 23.5792 30.2222 23.5715 30.3008C23.5689 30.3856 23.6784 30.4695 23.7494 30.5328C23.8332 30.5961 23.9572 30.5858 24.0761 30.5961C24.2012 30.6055 24.379 30.6114 24.6245 30.6114H25.3937L25.6298 29.8142L24.9412 29.8792C24.8676 29.8792 24.8144 29.8398 24.7923 29.8065ZM25.5486 27.1192H27.1885L27.0843 27.446C27.0696 27.4537 27.0346 27.4298 26.8677 27.4495H25.4476L25.5486 27.1192ZM25.8771 26.0233H27.5308L27.4119 26.4168C27.4119 26.4168 26.6324 26.4092 26.5076 26.4322C25.9583 26.5272 25.6375 26.8207 25.6375 26.8207L25.8771 26.0233ZM27.121 28.5402C27.1074 28.5891 27.0859 28.6189 27.0559 28.6412C27.0226 28.6627 26.9688 28.6703 26.8884 28.6703H26.6547L26.6685 28.2724H25.6965L25.6571 30.2179C25.6556 30.3583 25.6691 30.4395 25.7719 30.5046C25.8746 30.5858 26.191 30.5961 26.617 30.5961H27.2261L27.446 29.8679L26.9158 29.897L26.7395 29.9073C26.7154 29.897 26.6924 29.8876 26.6667 29.862C26.6444 29.8399 26.6067 29.8534 26.6129 29.7131L26.617 29.2144L27.1731 29.1914C27.4734 29.1914 27.6017 29.0937 27.7112 29.0006C27.8157 28.9115 27.8499 28.809 27.8893 28.6703L27.9826 28.2288H27.2184L27.121 28.5402Z"/></g></g></svg>

<svg xmlns="http://www.w3.org/2000/svg" fill="none" aria-hidden="true" viewBox="0 0 48 48"><path fill="#E21836" d="M13.05 12.74h8.985c1.255 0 2.035 1.023 1.742 2.281l-4.183 17.961c-.295 1.254-1.551 2.277-2.806 2.277H7.803c-1.252 0-2.034-1.023-1.742-2.277l4.185-17.96c.293-1.26 1.548-2.281 2.804-2.281Z"/><path fill="#00447C" d="M21.288 12.74H31.62c1.254 0 .688 1.023.393 2.281l-4.182 17.961c-.294 1.254-.202 2.277-1.459 2.277H16.04c-1.257 0-2.034-1.023-1.74-2.277l4.183-17.96c.297-1.26 1.55-2.281 2.805-2.281Z"/><path fill="#007B84" d="M31.211 12.74h8.986c1.256 0 2.036 1.023 1.74 2.281l-4.182 17.961c-.295 1.254-1.552 2.277-2.808 2.277h-8.98c-1.258 0-2.037-1.023-1.743-2.277l4.184-17.96c.292-1.26 1.546-2.281 2.803-2.281Z"/><path fill="#FEFEFE" d="M15.397 18.496c-.924.01-1.197 0-1.284-.02-.034.16-.657 3.035-.659 3.038-.134.582-.232.997-.564 1.264a1.002 1.002 0 0 1-.663.231c-.41 0-.648-.203-.688-.59l-.008-.132.125-.784s.654-2.62.771-2.967c.007-.02.008-.03.01-.04-1.274.012-1.5 0-1.515-.02-.009.028-.04.19-.04.19l-.669 2.955-.057.25-.111.82c0 .243.048.442.143.61.304.531 1.172.611 1.664.611.633 0 1.226-.134 1.628-.38.696-.412.878-1.055 1.04-1.626l.076-.294s.674-2.722.789-3.076c.004-.02.006-.03.012-.04Zm2.294 2.197c-.163 0-.46.039-.727.17-.096.05-.188.107-.285.164l.088-.315-.048-.053c-.566.115-.693.13-1.215.204l-.044.029c-.06.503-.114.881-.34 1.87-.085.364-.174.732-.263 1.096l.024.046c.536-.028.698-.028 1.163-.02l.038-.041c.06-.303.067-.374.198-.988.061-.29.19-.93.253-1.157.116-.054.231-.107.34-.107.261 0 .23.227.22.318-.012.152-.107.65-.204 1.076l-.065.276c-.045.203-.095.401-.14.603l.02.04c.527-.028.688-.028 1.139-.02l.053-.041c.081-.473.105-.6.25-1.289l.072-.316c.142-.62.213-.934.106-1.19-.113-.286-.384-.355-.633-.355Zm2.562.648c-.28.054-.46.09-.637.113-.177.028-.349.054-.62.092l-.021.02-.02.015c-.028.202-.048.376-.085.581-.032.213-.081.454-.16.8a3.144 3.144 0 0 1-.129.451c-.034.093-.072.184-.14.445l.015.024.014.022c.253-.012.42-.02.59-.022.17-.006.346 0 .619.002l.024-.02.025-.021c.04-.236.046-.299.07-.414.024-.123.065-.293.166-.748.048-.214.1-.427.15-.645.052-.218.106-.431.157-.645l-.008-.026-.01-.024Zm.006-.874c-.255-.15-.703-.103-1.004.105-.3.204-.334.493-.08.645.25.146.7.103.998-.107.3-.208.337-.494.086-.643ZM21.8 23.95c.515 0 1.044-.142 1.442-.564.306-.342.447-.85.495-1.06.159-.695.035-1.02-.12-1.217-.235-.301-.65-.398-1.082-.398-.259 0-.877.026-1.36.47-.346.322-.506.757-.602 1.175-.098.425-.21 1.19.494 1.475.217.094.53.12.733.12Zm-.04-1.563c.118-.526.259-.967.617-.967.28 0 .301.328.176.856-.022.117-.125.553-.263.738-.097.137-.212.22-.338.22-.038 0-.262 0-.265-.332a2.26 2.26 0 0 1 .072-.515Zm3.267 1.496.04-.041c.057-.303.066-.374.193-.988.063-.29.194-.93.256-1.157.116-.054.23-.107.342-.107.26 0 .228.227.217.318-.009.152-.104.65-.203 1.076l-.062.276c-.047.204-.098.401-.143.603l.02.04c.529-.028.684-.028 1.137-.02l.055-.041c.08-.474.1-.6.25-1.289l.07-.316c.143-.62.214-.934.11-1.19-.117-.286-.39-.355-.636-.355-.162 0-.46.039-.726.17-.095.05-.19.107-.283.164l.081-.315-.043-.053c-.566.115-.695.13-1.217.204l-.04.029c-.064.503-.115.881-.34 1.87-.086.364-.174.732-.263 1.096l.024.046c.536-.028.696-.028 1.16-.02Zm3.89.02.233-1.126s.169-.706.179-.732c0 0 .053-.074.106-.103h.078c.736 0 1.566 0 2.217-.479.444-.328.746-.813.881-1.403.036-.144.061-.316.061-.488 0-.226-.045-.45-.176-.624-.332-.465-.993-.473-1.756-.477l-.377.004c-.977.012-1.369.008-1.53-.011l-.039.198-.35 1.624-.877 3.611c.854-.01 1.203-.01 1.35.006Zm.649-2.881.37-1.613.012-.083.006-.063.148.015.786.068c.303.117.427.42.34.813-.08.36-.313.663-.613.81-.247.124-.55.134-.863.134h-.201l.015-.081Zm2.317 1.395c-.099.42-.212 1.185.489 1.458.223.095.424.123.627.113.215-.012.414-.12.598-.274l-.05.19.032.042c.504-.021.66-.021 1.206-.017l.05-.038c.08-.468.155-.924.362-1.82.101-.43.202-.855.305-1.283l-.016-.047a22.68 22.68 0 0 1-1.257.204l-.04.033-.017.128a.775.775 0 0 0-.395-.325c-.241-.095-.808.027-1.295.47-.342.317-.506.75-.6 1.166Zm1.184.026c.12-.517.259-.954.618-.954.227 0 .347.21.323.567l-.065.29c-.036.153-.075.305-.113.457a1.112 1.112 0 0 1-.133.269c-.092.13-.312.212-.439.212-.036 0-.257 0-.265-.327a2.25 2.25 0 0 1 .074-.514Zm6.183-1.706-.044-.05c-.558.113-.659.131-1.171.2l-.038.038-.006.024-.002-.008c-.381.88-.37.69-.68 1.383l-.004-.085-.078-1.502-.049-.05c-.584.113-.598.131-1.137.2l-.043.038c-.005.018-.005.038-.009.06l.004.007c.067.345.05.268.118.812.032.267.074.535.106.799.053.441.083.659.148 1.332-.365.601-.451.829-.802 1.357l.002.005-.247.39c-.028.042-.053.07-.09.082a.373.373 0 0 1-.161.023h-.137l-.203.677.697.012c.41-.002.668-.193.806-.451l.44-.752h-.008l.047-.053c.295-.636 2.54-4.488 2.54-4.488Zm-7.367 8.888h-.296L32.683 26h.363l.116-.373.01.415c-.013.257.189.484.72.447h.613l.211-.698h-.23c-.134 0-.195-.034-.187-.106l-.011-.422h-1.137v.002c-.367.008-1.464.035-1.686.094-.268.07-.552.273-.552.273l.112-.374h-1.063L29.74 26l-1.11 3.68h-.216l-.21.693h2.116l-.071.231h1.043l.069-.23h.292l.23-.749Zm-.869-2.888c-.17.047-.487.19-.487.19L30.81 26h.844l-.203.675s-.261.015-.436.062Zm.017 1.323s-.266.033-.44.073a4.323 4.323 0 0 0-.495.216l.291-.964h.849l-.205.675Zm-.474 1.573h-.846l.245-.813h.844l-.242.813Zm2.04-2.248h1.22l-.175.568h-1.237l-.185.621h1.082l-.82 1.154a.338.338 0 0 1-.165.139.487.487 0 0 1-.22.063h-.3l-.207.68h.785c.409 0 .65-.185.828-.429l.562-.77.12.782a.368.368 0 0 0 .202.265c.079.04.16.107.275.117.123.006.212.01.271.01h.386l.232-.762H35.1c-.088 0-.238-.014-.264-.042-.026-.033-.026-.084-.04-.162l-.122-.783h-.501l.22-.262h1.234l.19-.62h-1.143l.178-.569h1.14l.211-.7h-3.397l-.208.7Zm-10.31 2.407.284-.948h1.171l.214-.705h-1.172l.179-.584h1.146l.212-.682h-2.866l-.208.682h.651l-.174.584h-.653l-.216.717h.65l-.379 1.254c-.051.166.024.23.072.306a.314.314 0 0 0 .21.153c.114.026.193.041.3.041h1.32l.235-.78-.585.08c-.113 0-.426-.014-.392-.118Zm.134-4.538-.297.536a.623.623 0 0 1-.172.224c-.046.028-.135.04-.265.04h-.155l-.207.686h.514c.247 0 .437-.09.528-.136.097-.052.123-.022.198-.095l.174-.15h1.606l.213-.715h-1.176l.206-.39h-1.167Zm2.37 4.552c-.027-.04-.007-.11.034-.254l.44-1.453h1.56c.228-.003.392-.006.5-.013.114-.012.239-.053.375-.127a.703.703 0 0 0 .273-.251c.068-.093.176-.297.27-.611l.551-1.839-1.62.01s-.499.073-.719.155c-.221.09-.538.343-.538.343l.146-.503h-1l-1.402 4.647c-.05.18-.083.311-.09.39-.003.085.106.169.177.232.084.063.208.053.327.063.125.01.303.015.549.015h.769l.236-.797-.689.065a.18.18 0 0 1-.149-.073Zm.757-2.688h1.64l-.105.327c-.014.008-.05-.016-.216.003h-1.42l.1-.33Zm.328-1.096h1.654l-.12.394s-.779-.008-.903.015c-.55.095-.87.389-.87.389l.24-.798Zm1.244 2.517a.175.175 0 0 1-.065.101c-.033.022-.087.03-.168.03h-.233l.014-.399h-.973l-.039 1.946c-.001.14.012.221.115.287.103.08.419.091.845.091h.61l.219-.728-.53.029-.177.01a.198.198 0 0 1-.072-.045c-.023-.022-.06-.009-.054-.149l.004-.499.556-.023c.3 0 .429-.097.538-.19.105-.09.139-.192.178-.33l.094-.442h-.765l-.097.311Z"/></svg>
